X:1
T:Title
%%score { ( 1 4 ) | ( 2 3 ) }
L:1/8
M:4/4
K:G
V:1 treble nm="Grand Piano"
V:4 treble 
V:2 bass 
V:3 bass 
V:1
 z8[Q:1/4=92] | [DB][DB][DB][DB] [Ec]cB_B | [DB]2 [B,G]4 z D | [FA]AAA [FA]FGA | [GB]6 z2 | %5
 [DB][DB][GB][=FB] [Ec]cB_B | [DB]2 [B,G]4 z [GB] | [FA]AFF [^CA]GFG |[M:9/8] A8- A | %9
[M:1/4][Q:1/4=100] D2 |[M:4/4] [CFA]3 [CFA] [B,=F^G]2 [B,FG]2 | [CFA]6 D2 | %12
 [DGB]3 [DGB] [^DG_B]2 [DGB]2 |[M:3/4] [DGB]6 |[M:1/4] [B,G]2 |[M:4/4] [Ge]2 [DGd]2 [DFc]2 [DGB]2 | %16
 [DB]2 A2 G2 E2 | D2 z B B A3 | G8 |] %19
V:2
 z4 z2 z D | G,,D,G,D, z ED^C | G,,D,G,D, G,,D,G,D, | z[K:treble] FFF[K:bass] z D[K:treble]EF | %4
 G,,D,E,B,, D,2 z D | G,,D,G,D, z ED^C | G,,D,G,D, G,,D,G,D, | z[K:treble] FDD[K:bass] z ^CCC | %8
[M:9/8] [D,F,C]8- [D,F,C] |[M:1/4] D,2 |[M:4/4] D,3 D, D,2 D,2 | D,2 D,2 D,2 D,2 | %12
 G,3 G, ^D,2 D,2 |[M:3/4] G,2 G,2 G,2 |[M:1/4] G,2 |[M:4/4] C2 B,2 A,2 G,2 | z2 C4 [C,G,C]2 | %17
 [D,G,B,]2 z [D,G,D] [D,F,D] [D,F,C]3 | z2 E,2 D,4 |] %19
V:3
 x8 | z4 G,,4 | x8 | D,,4[K:treble][K:bass] D,4[K:treble] | z4 z2 D,,2 | z4 G,,4 | x8 | %7
 A,,4[K:treble][K:bass] [A,,E,]4 |[M:9/8] x9 |[M:1/4] x2 |[M:4/4] x8 | x8 | x8 |[M:3/4] x6 | %14
[M:1/4] x2 |[M:4/4] x8 | C,6 z2 | x8 | G,,8 |] %19
V:4
 x8 | x8 | x8 | x8 | x8 | x8 | x8 | x8 |[M:9/8] x9 |[M:1/4] x2 |[M:4/4] x8 | x8 | x8 |[M:3/4] x6 | %14
[M:1/4] x2 |[M:4/4] x8 | E6 z2 | x8 | [G,B,]2 C2 B,4 |] %19

